X: 38
T:Nu lider dagen
M:2/4
L:1/8
Q:1/4=88
C:anon.
O:Denmark
Z:Transcribed by Frank Nordberg - http://www.musicaviva.com
K:F
%http://www.musicaviva.com/abc/denmark.abc
"(Slow)"A|"A7"AG FE|"Dm"F2D E|"Dm"F2 "C"G2|"F"A3A|
w:Nu li-_ der_ da-gen s\aa j\aevnt og trindt, alt
"A7"AG FE|"Bb"D^C D E|"Dm"F>G "A7"E>F|"Dm"D2z2||
w:m\aa-_nen_ st\aar_ o-ver St\ae-_vens_ Klint
"C  (Fast)"C2C "C7"C|"F"F2F2|"C7"GA B G|"F"c2A F|
w:B\ae-ge-ret blin-ker, gl\ae-_den os vin-ker, mens
"C"C2D "C7"E|"F"F2"C"G "F"A|"C7"cB G A|"F"F2z2|
w:k\o- ig-hed vif-ter fra tr\ae-_er-nes krans;
"Bb"f2e d|"F"c2B A|"C"G2"D7"A2|"Gm"B3 z|
w:dug-gen den fal-der med per-lens glans,
"Gm"d2d d|"F"cf "Bb"F G|"F"A2"C"G2|"F"F2 Hz|]
w:af-te-nen kal-_der til sang og dans.
W:
W:Nu lider dagen s\aa j\aevnt og trindt,
W:alt m\aanen st\aar over St\ae vens Klint
W:B\aegeret blinker, gl\ae den os vinker,
W:mens k\olighed vifter fra tr\ae ernes krans;
W:duggen den falder med perlens glans,
W:aftenen kal der til sang og dans.
W:
W:Nu sidder pigen i elverkrat
W:og vogter tavs p\aa sin gyldne skat.
W:Kongen alene titter bag grene,
W:han skimter vor lystighed, h\orer vor sang,
W:lytter til st\ojen p\aa enlig gang,
W:h\orer fra h\ojen vor b\aegerklang.
W:
W:Snart t\aender m\aanen, ej l\aenger bleg,
W:sit natlys h\ojt over b\og og eg.
W:Stjernene funkle snart p\aa det dunkle,
W:n\aar smykket til h\ojtiden aftenen st\aar;
W:Freja vil spinde sit gule h\aar,
W:veien vi finne til bryllupsg\aard.
W:
W: From "Falaleiro" http://home.t-online.de/home/pheld/homepage.htm

